!!!OTL: WENN MEIN PFEIFCHEN DAMPFT UND GLUEHT
!!!ARE: Europa, Mitteleuropa, Deutschland
!!!SCT: F0052A
!!!YEM: Copyright 1995, estate of Helmut Schaffrath.
**kern
*ICvox
*Ivox
*M2/4
*k[f#c#]
*D:
=1
{8d
8f#
8f#
8a
=2
8a
16f#
16g
4e}
=3
{8d
8f#
8f#
8a
=4
4a
4e}
=5
{8d
8f#
8f#
8a
=6
8a
16f#
16g
4e}
=7
{8.a
16dd
16b
16g
16g
16e
=8
4e
8d
8r}
=9
{8.e
16a
8.a
16e
=10
8.e
16d
8d
8c#}
=11
{8.e
16cc#
8.cc#
16g#
=12
4g#
8a
8r}
=13
{8d
8f#
8f#
8a
=14
8a
16f#
16g
4e}
=15
{8.a
16dd
16b
16g
16g
16e
=16
4e
8d
8r}
==
!!!AGN: Scherz - Lied, Lob des Tabaks
!!!ONB: ESAC (Essen Associative Code) Database: FINK
!!!AMT: simple duple
!!!AIN: vox
!!!EED: Helmut Schaffrath
!!!EEV: 1.0
*-
